X: 453
T: A Tune For Yvonne Casey
R: reel
M: 4/4
K: Cmajor
|:cdec d2cA|GEE2 CD E/F/G|cdec Addf|afdc BGG2|
ecc2 cdcA|GEE2 ceae|g3a ecc2|fdAB c4:|
|:G,CC2 CA,G,2|cege cAGA|aff2 gfAc|dccA G4|
G,CC2 CA,G,2|cege cAGA|fgaf egg2|fdAB c4:|
|:c2gc acgc|agge f/g/a ge|c2gc BGG2|Adde f2ed|
c2gc acgc|Add2 faa2|efgf ecc2|fdAB c4:|

